X:1
T:Ave Maria
T:Ludovici Balbi Veneti (1544-1604)
T:Ave Maria
T:Copyright © 2014 by CPDL This edition can be fully distributed, duplicated, performed, and recorded 
T:Copyright © 2014 by CPDL This edition can be fully distributed, duplicated, performed, and recorded 
T:Copyright © 2014 by CPDL This edition can be fully distributed, duplicated, performed, and recorded 
T:Copyright © 2014 by CPDL This edition can be fully distributed, duplicated, performed, and recorded 
T:Copyright © 2014 by CPDL This edition can be fully distributed, duplicated, performed, and recorded 
T:Copyright © 2014 by CPDL This edition can be fully distributed, duplicated, performed, and recorded 
C:Ludovici Balbi Veneti (1544-1604)
Z:Copyright © 2014 by CPDL
Z:This edition can be fully distributed, duplicated, performed, and recorded
%%score [ 1 2 3 4 ]
L:1/8
Q:1/2=96
M:4/2
K:F
V:1 treble nm="Soprano" snm="S."
V:2 treble nm="Alto" snm="A."
V:3 treble-8 transpose=-12 nm="Tenor" snm="T."
V:4 bass nm="Bass" snm="B."
V:1
 z16 | z16 | B8 B4 F4 | G8 d8- | d8 B8 | B4 F4 (G6 A2 | B8) G8 | z8 z4 F4- | F2 F2 A4 B8 | A8 z8 | %10
w: ||A- ve Ma-|ri- a,|_ A-|ve Ma- ri- *|* a.|Gra-|* ti- a ple-|na.|
 z8 z4 A4- | A2 A2 G4 B8 | A8 z4 c4- | c2 c2 c4 (A6 B2 | c8) F8 | G8 F4 B4- | B4 A4 d4 d4 | c8 B8 | %18
w: Do-|* mi- nus te-|cum, Do-|* mi- nus te- *|* cum.|Be- ne- di-|* cta tu in|mu- li-|
 A6 A2 G8 | z4 B8 c4 | d4 A4 d8 | z4 c4 B8- | (B4 A2 G2 F4) A4 | B2 F2 B6 A2 A2 GA | B4 F4 A8 | %25
w: e- ri- bus,|be- ne-|di- cta tu|in mu-|* * * * li-|e- * * * * * *|* ri- bus|
 z4 F4 F4 =E4 | F4 G4 A8 | G4 B8 A4 | G8 F8 | z8 z4 A4 | G4 G4 F8 | E8 (G8 | A8) F4 B4- | %33
w: et be- ne-|di- ctus fru-|ctus ven- tris|tu- i|et|be- ne- di-|ctus fru-|* ctus ven-|
 B4 B4 A4 D4 | F4 G4 A8 | G4 (G8 ^F4) | G16 |]"^alt ending by editor:" E8 (G8 | A8) F4 B4- | %39
w: * tris tu- i,|fru- ctus ven-|tris tu- *|i.|ctus fru-|* ctus ven-|
 B4 B4 A4 D4 | F4 G4 A8 | G4 (G8 ^F4) | G16 |] %43
w: * tris tu- i,|ven- tris tu-|i Je- *|su.|
V:2
 z16 | B,8 B,4 F,4 | G,8 D8 | z8 B,8 | B,4 F,4 G,8 | D8 z4 B,4- | B,2 B,2 D4 _E8 | D8 B,8 | %8
w: |A- ve Ma-|ri- a,|A-|ve Ma- ri-|a. Gra-|* ti- a ple-|na, A-|
 B,4 F,4 G,8 | D8 B,8 | G,4 F,4 (F8 | =E8) D8- | D8 z8 | z4 C6 C2 D4 | _E8 D8 | z16 | z4 F8 G4 | %17
w: ve Ma- ri-|a. Gra-|ti- a ple-|* na.|_|Do- mi- nus|te- cum.||Be- ne-|
 A4 E4 G8 | C8 C4 C4 | (B,6 A,2 G,4) G,4 | A,4 D8 G,4 | (C8 D8) | =E4 F8 F4 | F4 D4 C6 C2 | %24
w: di- cta tu|in mu- li-|e- * * ri-|bus. be- ne-|di- *|cta tu in|mu- li- e- ri-|
 B,8 z4 F4 | F4 D4 C8 | B,8 (F8 | G8) F8 | D12 C4 | C8 A,8 | z4 D4 C8- | C4 C4 B,8 | A,8 D8- | %33
w: bus et|be- ne- di-|ctus fru-|* ctus|ven- tris|tu- i|et be-|* ne- di-|ctus fru-|
 D4 D4 (F6 E2 | D4) E4 (F8 | E8) D8- | D16 |] C4 C4 B,8 | A,8 D8- | D4 D4 (F6 E2 | D4) E4 F8 | %41
w: * ctus ven- *|* tris tu-|* i.|_|* ne- di-|ctus fru-|* ctus ven- *|* tris tu-|
 E8 D8 | D16 |] %43
w: i Je-|su.|
V:3
 B8 B4 F4 | G8 d8 | z4 B6 B2 d4 | _e8 d8 | z16 | z8 G8 | G4 F4 c8 | B8 d8- | d8 d8 | D8 (d6 c2 | %10
w: A- ve Ma-|ri- a.|Gra- ti- a|ple- na.||A-|ve Ma- ri-|a. Gra-|* ti-|a ple- *|
 B8) A8 | z8 z4 F4- | F4 F4 G8 | (A6 G2 F8) | G8 z4 B4- | B4 c4 d4 G4 | d8 z8 | z4 c4 d4 =e4 | %18
w: * na.|Do-|* mi- nus|te- * *|cum Be-|* ne- di- cta|tu|in mu- li-|
 f8 e8 | d8 z4 G4- | G4 F4 B8 | A8 G4 B4 | B4 c4 d4 c4 | d8 z8 | z4 d4 d4 c4 | B8 A8 | d12 c4 | %27
w: e- ri-|bus. be-|* ne- di-|cta tu in|mu- li- e- ri-|bus|et be- ne-|di- ctus|fru- ctus|
 c4 B4 (d6 c2 | B8) A8 | z4 c4 c4 c4 | B8 A8 | z4 c4 d4 e4 | f16 | B8 z8 | B8 c4 c4- | c4 c4 A8 | %36
w: ven- tris tu- *|* i,|et be- ne-|di- ctus,|et be- ne-|di-|ctus|fru- ctus ven-|* tris tu-|
 G16 |] z4 c4 d4 e4 | f16 | B8 A4 d4- | (d2 c2) B4 c4 c4- | c4 c4 A8 | G16 |] %43
w: i.|et be- ne-|di-|ctus fru- ctus|_ _ ven- tris tu-|* i Je-|su.|
V:4
 z16 | z16 | z16 | z8 z4 B,,4- | B,,2 B,,2 D,4 _E,8 | D,8 _E,8 | _E,4 B,,4 C,8 | G,8 z4 D,4- | %8
w: |||Gra-|* ti- a ple-|na. A-|ve Ma- ri-|a. Gra-|
 D,2 D,2 D,4 B,,2 G,,2 G,4- | G,2 ^F,E, F,4 G,8 | z4 D,8 D,4 | C,8 (B,,6 C,2 | D,8) C,8 | %13
w: * ti- a ple- * *|* * * * na.|Do- mi-|nus te- *|* cum.|
 z4 F,6 F,2 D,4 | C,8 D,8 | z8 z4 G,4- | G,4 F,4 B,8 | A,8 G,8 | F,8 C,4 C,4 | (G,6 F,2 _E,4) E,4 | %20
w: Do- mi- nus|te- cum.|Be-|* ne- di-|cta tu|in mu- li-|e- * * ri-|
 D,8 z8 | z8 z4 G,4- | G,4 F,4 B,4 F,4 | B,8 F,8 | G,4 B,4 F,6 F,2 | B,,8 z8 | z4 G,4 F,4 F,4 | %27
w: bus,|be-|* ne- di- cta|tu in|mu- li- e- ri-|bus|et be- ne-|
 _E,8 D,8 | G,8 D,4 F,4- | F,4 =E,4 F,8 | G,8 z4 A,4 | A,4 A,4 G,8 | F,8 (B,6 A,2 | G,8) F,4 B,4- | %34
w: di- ctus|fru- ctus ven-|* tris tu-|i, et|be- ne- di-|ctus fru- *|* ctus ven-|
 (B,2 A,2 G,4) F,8 | (C,8 D,8) | G,,16 |] A,4 A,4 G,8 | F,8 (B,6 A,2 | G,8) F,4 B,4- | %40
w: * * * tris|tu- *|i.|be- ne- di-|ctus fru- *|* ctus ven-|
 (B,2 A,2) G,4 F,8 | C,8 D,8 | G,,16 |] %43
w: * * tris tu-|i Je-|su.|

